Com_parImpar_WEB/src/assets/image/gps.svg

<svg width="140" height="140" viewBox="0 0 140 140" fill="none" xmlns="http://www.w3.org/2000/svg">
<circle cx="70" cy="70" r="70" fill="#FF9F0D"/>
<path d="M70 88.2C77.7037 82.6 83.5185 77.2167 87.4444 72.05C91.3704 66.8833 93.3333 62.0667 93.3333 57.6C93.3333 53.6667 92.537 50.3333 90.9444 47.6C89.3519 44.8667 87.3889 42.6333 85.0556 40.9C82.7222 39.1667 80.1852 37.9167 77.4444 37.15C74.7037 36.3833 72.2222 36 70 36C67.7778 36 65.2963 36.3833 62.5556 37.15C59.8148 37.9167 57.2778 39.1667 54.9444 40.9C52.6111 42.6333 50.6481 44.8667 49.0556 47.6C47.463 50.3333 46.6667 53.6667 46.6667 57.6C46.6667 62.0667 48.6296 66.8833 52.5556 72.05C56.4815 77.2167 62.2963 82.6 70 88.2ZM70 95.8C59.8519 88.9333 52.3148 82.3667 47.3889 76.1C42.463 69.8333 40 63.6667 40 57.6C40 53.0667 40.9074 49.0833 42.7222 45.65C44.537 42.2167 46.8889 39.3333 49.7778 37C52.6667 34.6667 55.8889 32.9167 59.4444 31.75C63 30.5833 66.5185 30 70 30C73.4815 30 77 30.5833 80.5556 31.75C84.1111 32.9167 87.3333 34.6667 90.2222 37C93.1111 39.3333 95.463 42.2167 97.2778 45.65C99.0926 49.0833 100 53.0667 100 57.6C100 63.6667 97.537 69.8333 92.6111 76.1C87.6852 82.3667 80.1481 88.9333 70 95.8ZM70 64C72.1481 64 73.9815 63.3167 75.5 61.95C77.0185 60.5833 77.7778 58.9333 77.7778 57C77.7778 55.0667 77.0185 53.4167 75.5 52.05C73.9815 50.6833 72.1481 50 70 50C67.8519 50 66.0185 50.6833 64.5 52.05C62.9815 53.4167 62.2222 55.0667 62.2222 57C62.2222 58.9333 62.9815 60.5833 64.5 61.95C66.0185 63.3167 67.8519 64 70 64ZM40 110V104H100V110H40Z" fill="white"/>
</svg>

<?xml version="1.0" encoding="utf-8"?>
<!-- Generator: Adobe Illustrator 25.0.1, SVG Export Plug-In . SVG Version: 6.00 Build 0)  -->
<svg version="1.1" id="Capa_1" xmlns="http://www.w3.org/2000/svg" xmlns:xlink="http://www.w3.org/1999/xlink" x="0px" y="0px"
	 viewBox="0 0 140 140" style="enable-background:new 0 0 140 140;" xml:space="preserve">
<style type="text/css">
	.st0{fill:#1995AD;}
	.st1{fill:#FFFFFF;}
</style>
<circle class="st0" cx="70" cy="70" r="70"/>
<path class="st1" d="M70,88.2c7.7-5.6,13.5-11,17.4-16.1c3.9-5.2,5.9-10,5.9-14.5c0-3.9-0.8-7.3-2.4-10c-1.6-2.7-3.6-5-5.9-6.7
	c-2.3-1.7-4.9-3-7.6-3.8C74.7,36.4,72.2,36,70,36s-4.7,0.4-7.4,1.2c-2.7,0.8-5.3,2-7.6,3.8c-2.3,1.7-4.3,4-5.9,6.7
	c-1.6,2.7-2.4,6.1-2.4,10c0,4.5,2,9.3,5.9,14.5C56.5,77.2,62.3,82.6,70,88.2z M70,95.8c-10.1-6.9-17.7-13.4-22.6-19.7
	S40,63.7,40,57.6c0-4.5,0.9-8.5,2.7-11.9s4.2-6.3,7.1-8.7c2.9-2.3,6.1-4.1,9.7-5.2C63,30.6,66.5,30,70,30s7,0.6,10.6,1.8
	c3.6,1.2,6.8,2.9,9.7,5.2s5.2,5.2,7.1,8.7c1.8,3.4,2.7,7.4,2.7,11.9c0,6.1-2.5,12.2-7.4,18.5C87.7,82.4,80.1,88.9,70,95.8z M70,64
	c2.1,0,4-0.7,5.5-2s2.3-3,2.3-5s-0.8-3.6-2.3-5s-3.4-2-5.5-2s-4,0.7-5.5,2s-2.3,3-2.3,5s0.8,3.6,2.3,5S67.9,64,70,64z M40,110v-6h60
	v6H40z"/>
</svg>
